X: 40016
T: Three Scones Of Boxty, The
R: reel
M: 4/4
K: Dmajor
gfed cBAc|BAGB A2ef|gfed cBAc|BAGE EDD2|
gfed cBAc|BAGB A2ef|gfed cBAc|BAGE EDD2||
cded cA A2|BAGB A3B|cded cA A2|BAGE EDD2|
cded cA A2|BAGB A3B|cdef g2ed|cAGE EDD2||

